svg/fluentui-system-icons/ic_fluent_document_settings_20_filled.svg

<svg width="20" height="20" viewBox="0 0 20 20" fill="none" xmlns="http://www.w3.org/2000/svg">
<path d="M10 2V6.5C10 7.32843 10.6716 8 11.5 8H16V16.5C16 17.3284 15.3284 18 14.5 18H8.66308C10.0766 17.0046 11 15.3602 11 13.5C11 10.4624 8.53757 8 5.5 8C4.97999 8 4.47683 8.07217 4 8.20703V3.5C4 2.67157 4.67157 2 5.5 2H10ZM11 2.25V6.5C11 6.77614 11.2239 7 11.5 7H15.75L11 2.25ZM3.06475 10.442C3.36804 11.5231 2.72204 12.642 1.63409 12.9199L1.17305 13.0377C1.15807 13.1896 1.15039 13.3438 1.15039 13.4999C1.15039 13.6875 1.16149 13.8725 1.18305 14.0541L1.53261 14.1368C2.65204 14.4014 3.31803 15.5536 2.98869 16.6557L2.86235 17.0785C3.11953 17.2817 3.39927 17.4559 3.697 17.5964L4.022 17.2523C4.81181 16.416 6.14257 16.4167 6.93151 17.2538L7.26887 17.6118C7.56129 17.4769 7.83666 17.3095 8.09073 17.1142L7.93458 16.5575C7.63129 15.4764 8.27729 14.3575 9.36524 14.0795L9.82578 13.9619C9.84075 13.81 9.84842 13.6559 9.84842 13.4999C9.84842 13.3121 9.83731 13.127 9.81572 12.9452L9.46672 12.8627C8.34728 12.598 7.6813 11.4459 8.01063 10.3438L8.13682 9.92148C7.8796 9.71819 7.59981 9.54392 7.30201 9.4034L6.97733 9.74719C6.18751 10.5835 4.85675 10.5828 4.06781 9.74565L3.73046 9.3877C3.43803 9.52258 3.16264 9.68988 2.90856 9.88518L3.06475 10.442ZM5.49941 14.4999C4.94713 14.4999 4.49941 14.0521 4.49941 13.4999C4.49941 12.9476 4.94713 12.4999 5.49941 12.4999C6.05169 12.4999 6.49941 12.9476 6.49941 13.4999C6.49941 14.0521 6.05169 14.4999 5.49941 14.4999Z" fill="#212121"/>
</svg>

<svg xmlns="http://www.w3.org/2000/svg" width="20" height="20"><path d="M10 2v4.5A1.5 1.5 0 0 0 11.5 8H16v8.5a1.5 1.5 0 0 1-1.5 1.5H8.663A5.5 5.5 0 0 0 4 8.207V3.5A1.5 1.5 0 0 1 5.5 2H10Zm1 .25V6.5a.5.5 0 0 0 .5.5h4.25L11 2.25Zm-7.935 8.192a2 2 0 0 1-1.43 2.478l-.462.118a4.709 4.709 0 0 0 .01 1.016l.35.083a2 2 0 0 1 1.456 2.519l-.127.422c.258.204.537.378.835.518l.325-.344a2 2 0 0 1 2.91.002l.337.358c.292-.135.568-.302.822-.498l-.156-.556a2 2 0 0 1 1.43-2.479l.46-.117a4.71 4.71 0 0 0-.01-1.017l-.348-.082a2 2 0 0 1-1.456-2.52l.126-.422a4.32 4.32 0 0 0-.835-.518l-.325.344a2 2 0 0 1-2.91-.001l-.337-.358a4.314 4.314 0 0 0-.821.497l.156.557ZM5.499 14.5a1 1 0 1 1 0-2 1 1 0 0 1 0 2Z"/></svg>
